ox-hugo/KYyGNeh.svg

<?xml version="1.0" encoding="UTF-8" standalone="no"?>
<svg
   width="253.04024pt"
   height="53.971333pt"
   viewBox="0 0 253.04025 53.971331"
   version="1.1"
   id="svg87"
   xmlns:xlink="http://www.w3.org/1999/xlink"
   xmlns="http://www.w3.org/2000/svg"
   xmlns:svg="http://www.w3.org/2000/svg">
  <defs
     id="defs21">
    <g
       id="g19">
      <g
         id="glyph-0-0" />
      <g
         id="glyph-0-1">
        <path
           d="m 3.96875,-6.9375 c -0.046875,-0.125 -0.078125,-0.203125 -0.234375,-0.203125 -0.15625,0 -0.1875,0.0625 -0.234375,0.203125 L 1.4375,-0.984375 C 1.25,-0.46875 0.859375,-0.3125 0.3125,-0.3125 V 0 c 0.234375,-0.015625 0.671875,-0.03125 1.015625,-0.03125 0.3125,0 0.828125,0.015625 1.15625,0.03125 v -0.3125 c -0.5,0 -0.75,-0.25 -0.75,-0.5 0,-0.03125 0.015625,-0.140625 0.015625,-0.15625 L 2.21875,-2.265625 H 4.671875 L 5.203125,-0.75 c 0.015625,0.046875 0.03125,0.109375 0.03125,0.140625 0,0.296875 -0.5625,0.296875 -0.828125,0.296875 V 0 c 0.359375,-0.03125 1.0625,-0.03125 1.4375,-0.03125 0.421875,0 0.890625,0.015625 1.296875,0.03125 V -0.3125 H 6.96875 C 6.375,-0.3125 6.234375,-0.375 6.125,-0.703125 Z m -0.53125,1.109375 1.125,3.25 H 2.328125 Z m 0,0"
           id="path3" />
      </g>
      <g
         id="glyph-0-2">
        <path
           d="m 2.21875,-3.65625 v -2.4375 C 2.21875,-6.4375 2.234375,-6.5 2.703125,-6.5 H 3.9375 c 0.96875,0 1.3125,0.84375 1.3125,1.375 0,0.640625 -0.484375,1.46875 -1.59375,1.46875 z M 4.5625,-3.5625 C 5.53125,-3.75 6.21875,-4.390625 6.21875,-5.125 6.21875,-5.984375 5.296875,-6.8125 4,-6.8125 H 0.359375 V -6.5 H 0.59375 c 0.765625,0 0.796875,0.109375 0.796875,0.46875 v 5.25 c 0,0.359375 -0.03125,0.46875 -0.796875,0.46875 H 0.359375 V 0 h 3.90625 c 1.328125,0 2.21875,-0.890625 2.21875,-1.828125 0,-0.859375 -0.8125,-1.609375 -1.921875,-1.734375 z m -0.609375,3.25 h -1.25 c -0.46875,0 -0.484375,-0.0625 -0.484375,-0.390625 v -2.71875 h 1.875 C 5.078125,-3.421875 5.5,-2.5 5.5,-1.828125 5.5,-1.125 4.96875,-0.3125 3.953125,-0.3125 Z m 0,0"
           id="path6" />
      </g>
      <g
         id="glyph-0-3">
        <path
           d="m 0.5625,-3.40625 c 0,2.0625 1.609375,3.625 3.46875,3.625 1.625,0 2.59375,-1.390625 2.59375,-2.546875 C 6.625,-2.421875 6.625,-2.5 6.5,-2.5 6.390625,-2.5 6.390625,-2.4375 6.375,-2.328125 6.296875,-0.90625 5.234375,-0.09375 4.140625,-0.09375 c -0.609375,0 -2.5625,-0.328125 -2.5625,-3.3125 0,-2.96875 1.953125,-3.3125 2.5625,-3.3125 1.078125,0 1.96875,0.90625 2.171875,2.359375 C 6.328125,-4.21875 6.328125,-4.1875 6.46875,-4.1875 6.625,-4.1875 6.625,-4.21875 6.625,-4.421875 V -6.78125 c 0,-0.171875 0,-0.25 -0.109375,-0.25 -0.03125,0 -0.078125,0 -0.15625,0.125 l -0.5,0.734375 C 5.5,-6.53125 4.984375,-7.03125 4.03125,-7.03125 c -1.875,0 -3.46875,1.59375 -3.46875,3.625 z m 0,0"
           id="path9" />
      </g>
      <g
         id="glyph-1-0" />
      <g
         id="glyph-1-1">
        <path
           d="m 2.328125,-4.4375 c 0,-0.1875 0,-0.1875 -0.203125,-0.1875 -0.453125,0.4375 -1.078125,0.4375 -1.359375,0.4375 v 0.25 c 0.15625,0 0.625,0 1,-0.1875 v 3.546875 c 0,0.234375 0,0.328125 -0.6875,0.328125 H 0.8125 V 0 c 0.125,0 0.984375,-0.03125 1.234375,-0.03125 0.21875,0 1.09375,0.03125 1.25,0.03125 V -0.25 H 3.03125 c -0.703125,0 -0.703125,-0.09375 -0.703125,-0.328125 z m 0,0"
           id="path13" />
      </g>
      <g
         id="glyph-1-2">
        <path
           d="M 3.515625,-1.265625 H 3.28125 c -0.015625,0.15625 -0.09375,0.5625 -0.1875,0.625 C 3.046875,-0.59375 2.515625,-0.59375 2.40625,-0.59375 H 1.125 c 0.734375,-0.640625 0.984375,-0.84375 1.390625,-1.171875 0.515625,-0.40625 1,-0.84375 1,-1.5 0,-0.84375 -0.734375,-1.359375 -1.625,-1.359375 -0.859375,0 -1.453125,0.609375 -1.453125,1.25 0,0.34375 0.296875,0.390625 0.375,0.390625 0.15625,0 0.359375,-0.125 0.359375,-0.375 0,-0.125 -0.046875,-0.375 -0.40625,-0.375 C 0.984375,-4.21875 1.453125,-4.375 1.78125,-4.375 c 0.703125,0 1.0625,0.546875 1.0625,1.109375 0,0.609375 -0.4375,1.078125 -0.65625,1.328125 L 0.515625,-0.265625 C 0.4375,-0.203125 0.4375,-0.1875 0.4375,0 h 2.875 z m 0,0"
           id="path16" />
      </g>
    </g>
  </defs>
  <g
     fill="#000000"
     fill-opacity="1"
     id="g25"
     transform="translate(-6.7669922,-4.5176676)">
    <use
       xlink:href="#glyph-0-1"
       x="129.55"
       y="58.488998"
       id="use23" />
  </g>
  <g
     fill="#000000"
     fill-opacity="1"
     id="g29"
     transform="translate(-6.7669922,-4.5176676)">
    <use
       xlink:href="#glyph-0-2"
       x="61.355"
       y="30.905001"
       id="use27" />
  </g>
  <g
     fill="#000000"
     fill-opacity="1"
     id="g33"
     transform="translate(-6.7669922,-4.5176676)">
    <use
       xlink:href="#glyph-0-3"
       x="198.092"
       y="30.905001"
       id="use31" />
  </g>
  <path
     fill="none"
     stroke-width="0.3985"
     stroke-linecap="butt"
     stroke-linejoin="miter"
     stroke="#000000"
     stroke-opacity="1"
     stroke-miterlimit="10"
     d="M 119.26426,47.642488 65.162695,25.822176"
     id="path35" />
  <g
     fill="#000000"
     fill-opacity="1"
     id="g39"
     transform="translate(-6.7669922,-4.5176676)">
    <use
       xlink:href="#glyph-1-1"
       x="96.995003"
       y="49.264999"
       id="use37" />
  </g>
  <path
     fill="none"
     stroke-width="0.3985"
     stroke-linecap="butt"
     stroke-linejoin="miter"
     stroke="#000000"
     stroke-opacity="1"
     stroke-miterlimit="10"
     d="M 51.065039,20.216707 0.07284784,0.18545742"
     id="path41" />
  <path
     fill="none"
     stroke-width="0.3985"
     stroke-linecap="butt"
     stroke-linejoin="miter"
     stroke="#000000"
     stroke-opacity="1"
     stroke-miterlimit="10"
     d="M 51.065039,19.423738 13.752538,0.57998842"
     id="path43" />
  <path
     fill="none"
     stroke-width="0.3985"
     stroke-linecap="butt"
     stroke-linejoin="miter"
     stroke="#000000"
     stroke-opacity="1"
     stroke-miterlimit="10"
     d="M 51.065039,17.997957 27.432227,1.2909264"
     id="path45" />
  <path
     fill="none"
     stroke-width="0.3985"
     stroke-linecap="butt"
     stroke-linejoin="miter"
     stroke="#000000"
     stroke-opacity="1"
     stroke-miterlimit="10"
     d="M 52.24082,16.060457 40.580664,2.3221764"
     id="path47" />
  <path
     fill="none"
     stroke-width="0.3985"
     stroke-linecap="butt"
     stroke-linejoin="miter"
     stroke="#000000"
     stroke-opacity="1"
     stroke-miterlimit="10"
     d="M 56.154883,16.060457 52.27207,2.3221764"
     id="path49" />
  <path
     fill="none"
     stroke-width="0.3985"
     stroke-linecap="butt"
     stroke-linejoin="miter"
     stroke="#000000"
     stroke-opacity="1"
     stroke-miterlimit="10"
     d="M 60.072852,16.060457 63.95957,2.3221764"
     id="path51" />
  <path
     fill="none"
     stroke-width="0.3985"
     stroke-linecap="butt"
     stroke-linejoin="miter"
     stroke="#000000"
     stroke-opacity="1"
     stroke-miterlimit="10"
     d="M 63.99082,16.060457 75.650977,2.3221764"
     id="path53" />
  <path
     fill="none"
     stroke-width="0.3985"
     stroke-linecap="butt"
     stroke-linejoin="miter"
     stroke="#000000"
     stroke-opacity="1"
     stroke-miterlimit="10"
     d="M 65.162695,17.997957 88.795508,1.2909264"
     id="path55" />
  <path
     fill="none"
     stroke-width="0.3985"
     stroke-linecap="butt"
     stroke-linejoin="miter"
     stroke="#000000"
     stroke-opacity="1"
     stroke-miterlimit="10"
     d="M 65.162695,19.423738 102.4791,0.57998842"
     id="path57" />
  <path
     fill="none"
     stroke-width="0.3985"
     stroke-linecap="butt"
     stroke-linejoin="miter"
     stroke="#000000"
     stroke-opacity="1"
     stroke-miterlimit="10"
     d="M 65.162695,20.216707 116.15879,0.18545742"
     id="path59" />
  <path
     fill="none"
     stroke-width="0.3985"
     stroke-linecap="butt"
     stroke-linejoin="miter"
     stroke="#000000"
     stroke-opacity="1"
     stroke-miterlimit="10"
     d="M 133.77598,47.642488 187.80723,25.84952"
     id="path61" />
  <g
     fill="#000000"
     fill-opacity="1"
     id="g65"
     transform="translate(-6.7669922,-4.5176676)">
    <use
       xlink:href="#glyph-1-2"
       x="165.571"
       y="49.278999"
       id="use63" />
  </g>
  <path
     fill="none"
     stroke-width="0.3985"
     stroke-linecap="butt"
     stroke-linejoin="miter"
     stroke="#000000"
     stroke-opacity="1"
     stroke-miterlimit="10"
     d="M 187.80723,20.189363 136.87754,0.18545742"
     id="path67" />
  <path
     fill="none"
     stroke-width="0.3985"
     stroke-linecap="butt"
     stroke-linejoin="miter"
     stroke="#000000"
     stroke-opacity="1"
     stroke-miterlimit="10"
     d="M 187.80723,19.388582 150.56113,0.57998842"
     id="path69" />
  <path
     fill="none"
     stroke-width="0.3985"
     stroke-linecap="butt"
     stroke-linejoin="miter"
     stroke="#000000"
     stroke-opacity="1"
     stroke-miterlimit="10"
     d="M 187.80723,17.951082 164.24082,1.2909264"
     id="path71" />
  <path
     fill="none"
     stroke-width="0.3985"
     stroke-linecap="butt"
     stroke-linejoin="miter"
     stroke="#000000"
     stroke-opacity="1"
     stroke-miterlimit="10"
     d="M 189.04551,16.060457 177.38926,2.3221764"
     id="path73" />
  <path
     fill="none"
     stroke-width="0.3985"
     stroke-linecap="butt"
     stroke-linejoin="miter"
     stroke="#000000"
     stroke-opacity="1"
     stroke-miterlimit="10"
     d="M 192.96348,16.060457 189.07676,2.3221764"
     id="path75" />
  <path
     fill="none"
     stroke-width="0.3985"
     stroke-linecap="butt"
     stroke-linejoin="miter"
     stroke="#000000"
     stroke-opacity="1"
     stroke-miterlimit="10"
     d="M 196.88144,16.060457 200.76816,2.3221764"
     id="path77" />
  <path
     fill="none"
     stroke-width="0.3985"
     stroke-linecap="butt"
     stroke-linejoin="miter"
     stroke="#000000"
     stroke-opacity="1"
     stroke-miterlimit="10"
     d="M 200.79941,16.060457 212.45566,2.3221764"
     id="path79" />
  <path
     fill="none"
     stroke-width="0.3985"
     stroke-linecap="butt"
     stroke-linejoin="miter"
     stroke="#000000"
     stroke-opacity="1"
     stroke-miterlimit="10"
     d="M 202.0416,17.951082 225.6041,1.2909264"
     id="path81" />
  <path
     fill="none"
     stroke-width="0.3985"
     stroke-linecap="butt"
     stroke-linejoin="miter"
     stroke="#000000"
     stroke-opacity="1"
     stroke-miterlimit="10"
     d="M 202.0416,19.388582 239.2877,0.57998842"
     id="path83" />
  <path
     fill="none"
     stroke-width="0.3985"
     stroke-linecap="butt"
     stroke-linejoin="miter"
     stroke="#000000"
     stroke-opacity="1"
     stroke-miterlimit="10"
     d="M 202.0416,20.189363 252.96739,0.18545742"
     id="path85" />
</svg>

<?xml version="1.0" encoding="UTF-8" standalone="no"?>
<svg
   width="266.572pt"
   height="61.699pt"
   viewBox="0 0 266.572 61.699"
   version="1.1"
   id="svg87"
   xmlns:xlink="http://www.w3.org/1999/xlink"
   xmlns="http://www.w3.org/2000/svg"
   xmlns:svg="http://www.w3.org/2000/svg">
  <defs
     id="defs21">
    <g
       id="g19">
      <g
         id="glyph-0-0" />
      <g
         id="glyph-0-1">
        <path
           d="M 7.140625 0 L 7.140625 -0.3125 L 6.96875 -0.3125 C 6.375 -0.3125 6.234375 -0.375 6.125 -0.703125 L 3.96875 -6.9375 C 3.921875 -7.0625 3.890625 -7.140625 3.734375 -7.140625 C 3.578125 -7.140625 3.546875 -7.078125 3.5 -6.9375 L 1.4375 -0.984375 C 1.25 -0.46875 0.859375 -0.3125 0.3125 -0.3125 L 0.3125 0 L 1.328125 -0.03125 L 2.484375 0 L 2.484375 -0.3125 C 1.984375 -0.3125 1.734375 -0.5625 1.734375 -0.8125 C 1.734375 -0.84375 1.75 -0.953125 1.75 -0.96875 L 2.21875 -2.265625 L 4.671875 -2.265625 L 5.203125 -0.75 C 5.21875 -0.703125 5.234375 -0.640625 5.234375 -0.609375 C 5.234375 -0.3125 4.671875 -0.3125 4.40625 -0.3125 L 4.40625 0 C 4.765625 -0.03125 5.46875 -0.03125 5.84375 -0.03125 Z M 4.5625 -2.578125 L 2.328125 -2.578125 L 3.4375 -5.828125 Z M 4.5625 -2.578125 "
           id="path3" />
      </g>
      <g
         id="glyph-0-2">
        <path
           d="M 6.484375 -1.828125 C 6.484375 -2.6875 5.671875 -3.4375 4.5625 -3.5625 C 5.53125 -3.75 6.21875 -4.390625 6.21875 -5.125 C 6.21875 -5.984375 5.296875 -6.8125 4 -6.8125 L 0.359375 -6.8125 L 0.359375 -6.5 L 0.59375 -6.5 C 1.359375 -6.5 1.390625 -6.390625 1.390625 -6.03125 L 1.390625 -0.78125 C 1.390625 -0.421875 1.359375 -0.3125 0.59375 -0.3125 L 0.359375 -0.3125 L 0.359375 0 L 4.265625 0 C 5.59375 0 6.484375 -0.890625 6.484375 -1.828125 Z M 5.25 -5.125 C 5.25 -4.484375 4.765625 -3.65625 3.65625 -3.65625 L 2.21875 -3.65625 L 2.21875 -6.09375 C 2.21875 -6.4375 2.234375 -6.5 2.703125 -6.5 L 3.9375 -6.5 C 4.90625 -6.5 5.25 -5.65625 5.25 -5.125 Z M 5.5 -1.828125 C 5.5 -1.125 4.96875 -0.3125 3.953125 -0.3125 L 2.703125 -0.3125 C 2.234375 -0.3125 2.21875 -0.375 2.21875 -0.703125 L 2.21875 -3.421875 L 4.09375 -3.421875 C 5.078125 -3.421875 5.5 -2.5 5.5 -1.828125 Z M 5.5 -1.828125 "
           id="path6" />
      </g>
      <g
         id="glyph-0-3">
        <path
           d="M 6.625 -2.328125 C 6.625 -2.421875 6.625 -2.5 6.5 -2.5 C 6.390625 -2.5 6.390625 -2.4375 6.375 -2.328125 C 6.296875 -0.90625 5.234375 -0.09375 4.140625 -0.09375 C 3.53125 -0.09375 1.578125 -0.421875 1.578125 -3.40625 C 1.578125 -6.375 3.53125 -6.71875 4.140625 -6.71875 C 5.21875 -6.71875 6.109375 -5.8125 6.3125 -4.359375 C 6.328125 -4.21875 6.328125 -4.1875 6.46875 -4.1875 C 6.625 -4.1875 6.625 -4.21875 6.625 -4.421875 L 6.625 -6.78125 C 6.625 -6.953125 6.625 -7.03125 6.515625 -7.03125 C 6.484375 -7.03125 6.4375 -7.03125 6.359375 -6.90625 L 5.859375 -6.171875 C 5.5 -6.53125 4.984375 -7.03125 4.03125 -7.03125 C 2.15625 -7.03125 0.5625 -5.4375 0.5625 -3.40625 C 0.5625 -1.34375 2.171875 0.21875 4.03125 0.21875 C 5.65625 0.21875 6.625 -1.171875 6.625 -2.328125 Z M 6.625 -2.328125 "
           id="path9" />
      </g>
      <g
         id="glyph-1-0" />
      <g
         id="glyph-1-1">
        <path
           d="M 3.296875 0 L 3.296875 -0.25 L 3.03125 -0.25 C 2.328125 -0.25 2.328125 -0.34375 2.328125 -0.578125 L 2.328125 -4.4375 C 2.328125 -4.625 2.328125 -4.625 2.125 -4.625 C 1.671875 -4.1875 1.046875 -4.1875 0.765625 -4.1875 L 0.765625 -3.9375 C 0.921875 -3.9375 1.390625 -3.9375 1.765625 -4.125 L 1.765625 -0.578125 C 1.765625 -0.34375 1.765625 -0.25 1.078125 -0.25 L 0.8125 -0.25 L 0.8125 0 L 2.046875 -0.03125 Z M 3.296875 0 "
           id="path13" />
      </g>
      <g
         id="glyph-1-2">
        <path
           d="M 3.515625 -1.265625 L 3.28125 -1.265625 C 3.265625 -1.109375 3.1875 -0.703125 3.09375 -0.640625 C 3.046875 -0.59375 2.515625 -0.59375 2.40625 -0.59375 L 1.125 -0.59375 C 1.859375 -1.234375 2.109375 -1.4375 2.515625 -1.765625 C 3.03125 -2.171875 3.515625 -2.609375 3.515625 -3.265625 C 3.515625 -4.109375 2.78125 -4.625 1.890625 -4.625 C 1.03125 -4.625 0.4375 -4.015625 0.4375 -3.375 C 0.4375 -3.03125 0.734375 -2.984375 0.8125 -2.984375 C 0.96875 -2.984375 1.171875 -3.109375 1.171875 -3.359375 C 1.171875 -3.484375 1.125 -3.734375 0.765625 -3.734375 C 0.984375 -4.21875 1.453125 -4.375 1.78125 -4.375 C 2.484375 -4.375 2.84375 -3.828125 2.84375 -3.265625 C 2.84375 -2.65625 2.40625 -2.1875 2.1875 -1.9375 L 0.515625 -0.265625 C 0.4375 -0.203125 0.4375 -0.1875 0.4375 0 L 3.3125 0 Z M 3.515625 -1.265625 "
           id="path16" />
      </g>
    </g>
  </defs>
  <g
     fill="#000000"
     fill-opacity="1"
     id="g25">
    <use
       xlink:href="#glyph-0-1"
       x="129.55"
       y="58.377998"
       id="use23" />
  </g>
  <g
     fill="#000000"
     fill-opacity="1"
     id="g29">
    <use
       xlink:href="#glyph-0-2"
       x="61.355"
       y="30.85"
       id="use27" />
  </g>
  <g
     fill="#000000"
     fill-opacity="1"
     id="g33">
    <use
       xlink:href="#glyph-0-3"
       x="198.092"
       y="30.85"
       id="use31" />
  </g>
  <path
     fill="none"
     stroke-width="0.3985"
     stroke-linecap="butt"
     stroke-linejoin="miter"
     stroke="rgb(0%, 0%, 0%)"
     stroke-opacity="1"
     stroke-miterlimit="10"
     d="M -7.25475 6.350656 L -61.356313 28.124094 "
     transform="matrix(1, 0, 0, -1, 133.286, 58.378)"
     id="path35" />
  <g
     fill="#000000"
     fill-opacity="1"
     id="g39">
    <use
       xlink:href="#glyph-1-1"
       x="96.995003"
       y="49.153999"
       id="use37" />
  </g>
  <path
     fill="none"
     stroke-width="0.3985"
     stroke-linecap="butt"
     stroke-linejoin="miter"
     stroke="rgb(0%, 0%, 0%)"
     stroke-opacity="1"
     stroke-miterlimit="10"
     d="M -75.450063 33.717844 L -126.446156 53.682688 "
     transform="matrix(1, 0, 0, -1, 133.286, 58.378)"
     id="path41" />
  <path
     fill="none"
     stroke-width="0.3985"
     stroke-linecap="butt"
     stroke-linejoin="miter"
     stroke="rgb(0%, 0%, 0%)"
     stroke-opacity="1"
     stroke-miterlimit="10"
     d="M -75.450063 34.506906 L -112.766469 53.288156 "
     transform="matrix(1, 0, 0, -1, 133.286, 58.378)"
     id="path43" />
  <path
     fill="none"
     stroke-width="0.3985"
     stroke-linecap="butt"
     stroke-linejoin="miter"
     stroke="rgb(0%, 0%, 0%)"
     stroke-opacity="1"
     stroke-miterlimit="10"
     d="M -75.450063 35.924875 L -99.086781 52.577219 "
     transform="matrix(1, 0, 0, -1, 133.286, 58.378)"
     id="path45" />
  <path
     fill="none"
     stroke-width="0.3985"
     stroke-linecap="butt"
     stroke-linejoin="miter"
     stroke="rgb(0%, 0%, 0%)"
     stroke-opacity="1"
     stroke-miterlimit="10"
     d="M -74.321156 37.913156 L -85.926625 51.538156 "
     transform="matrix(1, 0, 0, -1, 133.286, 58.378)"
     id="path47" />
  <path
     fill="none"
     stroke-width="0.3985"
     stroke-linecap="butt"
     stroke-linejoin="miter"
     stroke="rgb(0%, 0%, 0%)"
     stroke-opacity="1"
     stroke-miterlimit="10"
     d="M -70.375844 37.913156 L -74.246938 51.538156 "
     transform="matrix(1, 0, 0, -1, 133.286, 58.378)"
     id="path49" />
  <path
     fill="none"
     stroke-width="0.3985"
     stroke-linecap="butt"
     stroke-linejoin="miter"
     stroke="rgb(0%, 0%, 0%)"
     stroke-opacity="1"
     stroke-miterlimit="10"
     d="M -66.430531 37.913156 L -62.563344 51.538156 "
     transform="matrix(1, 0, 0, -1, 133.286, 58.378)"
     id="path51" />
  <path
     fill="none"
     stroke-width="0.3985"
     stroke-linecap="butt"
     stroke-linejoin="miter"
     stroke="rgb(0%, 0%, 0%)"
     stroke-opacity="1"
     stroke-miterlimit="10"
     d="M -62.485219 37.913156 L -50.87975 51.538156 "
     transform="matrix(1, 0, 0, -1, 133.286, 58.378)"
     id="path53" />
  <path
     fill="none"
     stroke-width="0.3985"
     stroke-linecap="butt"
     stroke-linejoin="miter"
     stroke="rgb(0%, 0%, 0%)"
     stroke-opacity="1"
     stroke-miterlimit="10"
     d="M -61.356313 35.924875 L -37.7235 52.577219 "
     transform="matrix(1, 0, 0, -1, 133.286, 58.378)"
     id="path55" />
  <path
     fill="none"
     stroke-width="0.3985"
     stroke-linecap="butt"
     stroke-linejoin="miter"
     stroke="rgb(0%, 0%, 0%)"
     stroke-opacity="1"
     stroke-miterlimit="10"
     d="M -61.356313 34.506906 L -24.039906 53.288156 "
     transform="matrix(1, 0, 0, -1, 133.286, 58.378)"
     id="path57" />
  <path
     fill="none"
     stroke-width="0.3985"
     stroke-linecap="butt"
     stroke-linejoin="miter"
     stroke="rgb(0%, 0%, 0%)"
     stroke-opacity="1"
     stroke-miterlimit="10"
     d="M -61.356313 33.717844 L -10.360219 53.682688 "
     transform="matrix(1, 0, 0, -1, 133.286, 58.378)"
     id="path59" />
  <path
     fill="none"
     stroke-width="0.3985"
     stroke-linecap="butt"
     stroke-linejoin="miter"
     stroke="rgb(0%, 0%, 0%)"
     stroke-opacity="1"
     stroke-miterlimit="10"
     d="M 7.256969 6.350656 L 61.288219 28.09675 "
     transform="matrix(1, 0, 0, -1, 133.286, 58.378)"
     id="path61" />
  <g
     fill="#000000"
     fill-opacity="1"
     id="g65">
    <use
       xlink:href="#glyph-1-2"
       x="165.571"
       y="49.167999"
       id="use63" />
  </g>
  <path
     fill="none"
     stroke-width="0.3985"
     stroke-linecap="butt"
     stroke-linejoin="miter"
     stroke="rgb(0%, 0%, 0%)"
     stroke-opacity="1"
     stroke-miterlimit="10"
     d="M 61.288219 33.745188 L 10.358531 53.682688 "
     transform="matrix(1, 0, 0, -1, 133.286, 58.378)"
     id="path67" />
  <path
     fill="none"
     stroke-width="0.3985"
     stroke-linecap="butt"
     stroke-linejoin="miter"
     stroke="rgb(0%, 0%, 0%)"
     stroke-opacity="1"
     stroke-miterlimit="10"
     d="M 61.288219 34.542063 L 24.042125 53.288156 "
     transform="matrix(1, 0, 0, -1, 133.286, 58.378)"
     id="path69" />
  <path
     fill="none"
     stroke-width="0.3985"
     stroke-linecap="butt"
     stroke-linejoin="miter"
     stroke="rgb(0%, 0%, 0%)"
     stroke-opacity="1"
     stroke-miterlimit="10"
     d="M 61.288219 35.975656 L 37.721812 52.577219 "
     transform="matrix(1, 0, 0, -1, 133.286, 58.378)"
     id="path71" />
  <path
     fill="none"
     stroke-width="0.3985"
     stroke-linecap="butt"
     stroke-linejoin="miter"
     stroke="rgb(0%, 0%, 0%)"
     stroke-opacity="1"
     stroke-miterlimit="10"
     d="M 62.487437 37.913156 L 50.878062 51.538156 "
     transform="matrix(1, 0, 0, -1, 133.286, 58.378)"
     id="path73" />
  <path
     fill="none"
     stroke-width="0.3985"
     stroke-linecap="butt"
     stroke-linejoin="miter"
     stroke="rgb(0%, 0%, 0%)"
     stroke-opacity="1"
     stroke-miterlimit="10"
     d="M 66.43275 37.913156 L 62.561656 51.538156 "
     transform="matrix(1, 0, 0, -1, 133.286, 58.378)"
     id="path75" />
  <path
     fill="none"
     stroke-width="0.3985"
     stroke-linecap="butt"
     stroke-linejoin="miter"
     stroke="rgb(0%, 0%, 0%)"
     stroke-opacity="1"
     stroke-miterlimit="10"
     d="M 70.378062 37.913156 L 74.24525 51.538156 "
     transform="matrix(1, 0, 0, -1, 133.286, 58.378)"
     id="path77" />
  <path
     fill="none"
     stroke-width="0.3985"
     stroke-linecap="butt"
     stroke-linejoin="miter"
     stroke="rgb(0%, 0%, 0%)"
     stroke-opacity="1"
     stroke-miterlimit="10"
     d="M 74.323375 37.913156 L 85.928844 51.538156 "
     transform="matrix(1, 0, 0, -1, 133.286, 58.378)"
     id="path79" />
  <path
     fill="none"
     stroke-width="0.3985"
     stroke-linecap="butt"
     stroke-linejoin="miter"
     stroke="rgb(0%, 0%, 0%)"
     stroke-opacity="1"
     stroke-miterlimit="10"
     d="M 75.522594 35.975656 L 99.085094 52.577219 "
     transform="matrix(1, 0, 0, -1, 133.286, 58.378)"
     id="path81" />
  <path
     fill="none"
     stroke-width="0.3985"
     stroke-linecap="butt"
     stroke-linejoin="miter"
     stroke="rgb(0%, 0%, 0%)"
     stroke-opacity="1"
     stroke-miterlimit="10"
     d="M 75.522594 34.542063 L 112.768687 53.288156 "
     transform="matrix(1, 0, 0, -1, 133.286, 58.378)"
     id="path83" />
  <path
     fill="none"
     stroke-width="0.3985"
     stroke-linecap="butt"
     stroke-linejoin="miter"
     stroke="rgb(0%, 0%, 0%)"
     stroke-opacity="1"
     stroke-miterlimit="10"
     d="M 75.522594 33.745188 L 126.448375 53.682688 "
     transform="matrix(1, 0, 0, -1, 133.286, 58.378)"
     id="path85" />
</svg>
